T: Luradan's
M: 6/8
L: 1/8
K: Dmaj
BAF AFE | D3 EDB, | A,B,D ~E3 | FEE E2 d |BAF AFE | D3 EDB, | A,B,D ~E3 | FDD D2 :|DFA ~d3 | ede fdB | def edB | ABd e2 f |edB AFE | D3 EDB, | A,B,D ~E3 | FDD D2 :|
